/* XPM */
static const char * DigitAxis4_xpm[] = {
"32 32 4 1",
" 	c None",
".	c #FF0000",
"+	c #000200",
"@	c #000000",
"   ...                          ",
"   ...                          ",
"   ...                          ",
".........                       ",
".........                       ",
".........                       ",
"   ...                          ",
"   ...                          ",
"   ...                          ",
"    @@                          ",
"    @@                          ",
"    @@                          ",
"   ...                          ",
"   ...                          ",
"   ...                          ",
".........                       ",
".........                       ",
".........                       ",
"   ...                          ",
"   ...                          ",
"   ...                          ",
"    @@                          ",
"    @@                          ",
"    @@       ...          ...   ",
"    @@       ...          ...   ",
"    @@       ...          ...   ",
"    @@    .........    .........",
"    @@@@@@.........@@@@.........",
"    @@@@@@.........@@@@.........",
"             ...          ...   ",
"             ...          ...   ",
"             ...          ...   "};
